elusive/edit.svg

<?xml version="1.0" encoding="UTF-8" standalone="no"?>
<!-- Generator: IcoMoon.io -->

<svg
   xmlns:dc="http://purl.org/dc/elements/1.1/"
   xmlns:cc="http://creativecommons.org/ns#"
   xmlns:rdf="http://www.w3.org/1999/02/22-rdf-syntax-ns#"
   xmlns:svg="http://www.w3.org/2000/svg"
   xmlns="http://www.w3.org/2000/svg"
   xmlns:sodipodi="http://sodipodi.sourceforge.net/DTD/sodipodi-0.dtd"
   xmlns:inkscape="http://www.inkscape.org/namespaces/inkscape"
   id="svg2"
   version="1.1"
   data-tags="remove-circle, cancel, close, remove, delete"
   height="1200"
   width="1200"
   data-du=""
   viewBox="0 0 1200 1200"
   inkscape:version="0.48.4 r9939"
   sodipodi:docname="edit.svg">
  <defs
     id="defs32" />
  <sodipodi:namedview
     pagecolor="#ffffff"
     bordercolor="#666666"
     borderopacity="1"
     objecttolerance="10"
     gridtolerance="10"
     guidetolerance="10"
     inkscape:pageopacity="0"
     inkscape:pageshadow="2"
     inkscape:window-width="1535"
     inkscape:window-height="876"
     id="namedview30"
     showgrid="false"
     inkscape:zoom="0.7449875"
     inkscape:cx="440.66141"
     inkscape:cy="276.25972"
     inkscape:window-x="65"
     inkscape:window-y="24"
     inkscape:window-maximized="1"
     inkscape:current-layer="svg2" />
  <metadata
     id="metadata62">
    <rdf:RDF>
      <cc:Work
         rdf:about="">
        <dc:format>image/svg+xml</dc:format>
        <dc:type
           rdf:resource="http://purl.org/dc/dcmitype/StillImage" />
        <dc:title />
      </cc:Work>
    </rdf:RDF>
  </metadata>
  <path
     style="font-size:1353.90197754px;font-style:italic;letter-spacing:0;word-spacing:0;font-family:Serif"
     id="path5979"
     d="m 2.3950001e-6,-3.4999999e-6 0,775.7081134999999 0,424.29189 L 424.29189,1200 1200,1200 l 0,-775.70813 -196.875,196.875 0,381.95803 -381.95811,0 -424.29188,0 0,-424.29179 0,-381.95812 381.95812,0 196.875,-196.8749934999999 -775.7081276049998,0 z M 1050,-3.4999999e-6 973.16907,76.830926 1123.1691,226.83093 1200,149.99998 1050,-3.4999999e-6 z M 936.91408,113.08592 l -439.7461,439.74609 149.99999,150.00001 439.74613,-439.7461 -150.00002,-150 z M 441.94337,622.33873 c -2.22423,0.0342 -4.49321,0.19548 -6.73829,0.36634 l 0,142.08984 142.08985,0 c 0,-38.7082 -18.49265,-78.03913 -47.31445,-105.5421 -23.84157,-22.75079 -54.67524,-37.42735 -88.03711,-36.91408 z"
     inkscape:connector-curvature="0" />
</svg>

<?xml version="1.0" encoding="utf-8"?>
<!-- Generator: Adobe Illustrator 16.0.0, SVG Export Plug-In . SVG Version: 6.00 Build 0)  -->
<!DOCTYPE svg PUBLIC "-//W3C//DTD SVG 1.1//EN" "http://www.w3.org/Graphics/SVG/1.1/DTD/svg11.dtd">
<svg version="1.1"
	 id="svg2" xmlns:dc="http://purl.org/dc/elements/1.1/" xmlns:cc="http://creativecommons.org/ns#" xmlns:rdf="http://www.w3.org/1999/02/22-rdf-syntax-ns#" xmlns:svg="http://www.w3.org/2000/svg" xmlns:sodipodi="http://sodipodi.sourceforge.net/DTD/sodipodi-0.dtd" xmlns:inkscape="http://www.inkscape.org/namespaces/inkscape" sodipodi:docname="edit.svg" inkscape:version="0.48.4 r9939"
	 xmlns="http://www.w3.org/2000/svg" xmlns:xlink="http://www.w3.org/1999/xlink" x="0px" y="0px" width="1200px" height="1200px"
	 viewBox="0 0 1200 1200" enable-background="new 0 0 1200 1200" xml:space="preserve">
<sodipodi:namedview  inkscape:cy="276.25972" inkscape:cx="440.66141" inkscape:zoom="0.7449875" showgrid="false" id="namedview30" guidetolerance="10" gridtolerance="10" objecttolerance="10" borderopacity="1" bordercolor="#666666" pagecolor="#ffffff" inkscape:current-layer="svg2" inkscape:window-maximized="1" inkscape:window-y="24" inkscape:window-height="876" inkscape:window-width="1535" inkscape:pageshadow="2" inkscape:pageopacity="0" inkscape:window-x="65">
	</sodipodi:namedview>
<path id="path5979" inkscape:connector-curvature="0" d="M0,0v775.708V1200h424.292H1200V424.292l-196.875,196.875v381.958H621.167
	H196.875V578.833V196.875h381.958L775.708,0H0z M1050,0l-76.831,76.831l150,150L1200,150L1050,0z M936.914,113.086L497.168,552.832
	l150,150l439.746-439.746L936.914,113.086z M441.943,622.339c-2.225,0.034-4.493,0.195-6.738,0.366v142.09h142.09
	c0-38.708-18.492-78.039-47.314-105.542C506.139,636.502,475.306,621.825,441.943,622.339z"/>
</svg>
